Yaru++/actions/scalable/document-print-preview.svg

<svg enable-background="new" height="256" viewBox="0 0 256 256" width="256" xmlns="http://www.w3.org/2000/svg" xmlns:xlink="http://www.w3.org/1999/xlink">
  <filter id="filter1060" color-interpolation-filters="sRGB" height="1.048" width="1.048" x="-.02" y="-.02">
    <feGaussianBlur stdDeviation="1.531"/>
  </filter>
  <linearGradient id="linearGradient4226" gradientTransform="matrix(0 -.453125 -.45311204 0 253.29054 239.17476)" gradientUnits="userSpaceOnUse" x1="494.345" x2="4.414" y1="386.295" y2="169.657">
    <stop offset="0" stop-color="#e8e8e8"/>
    <stop offset="1" stop-color="#f5f5f5"/>
  </linearGradient>
  <linearGradient id="linearGradient4358" gradientUnits="userSpaceOnUse" x1="88" x2="488" y1="88" y2="488">
    <stop offset="0" stop-opacity=".588235"/>
    <stop offset=".88" stop-opacity="0"/>
    <stop offset="1"/>
  </linearGradient>
  <filter id="filter4380" color-interpolation-filters="sRGB" height="1.088" width="1.106" x="-.05" y="-.04">
    <feGaussianBlur stdDeviation="8.48"/>
  </filter>
  <filter id="filter4346" color-interpolation-filters="sRGB" height="1.022" width="1.026" x="-.01" y="-.01">
    <feGaussianBlur stdDeviation="2.12"/>
  </filter>
  <path d="m189.84323 74c-70.59344 0-78.18921 7.250835-77.84323 77.98706v146.01294 146.01294c-.34598 70.73623 7.24979 77.98706 77.84323 77.98706h196.31354c70.59344 0 76.00668-7.27384 77.84323-77.98706v-146.01294-146.01294c0-70.737067-7.24979-77.98706-77.84323-77.98706z" filter="url(#filter4346)" opacity=".1" transform="matrix(.5 0 0 .5 -16.666462 -20.825235)"/>
  <path d="m189.84323 74c-70.59344 0-78.18921 7.250835-77.84323 77.98706v146.01294 146.01294c-.34598 70.73623 7.24979 77.98706 77.84323 77.98706h196.31354c70.59344 0 77.84323-7.24999 77.84323-77.98706v-146.01294-146.01294c0-70.737067-7.24979-77.98706-77.84323-77.98706z" fill="url(#linearGradient4358)" filter="url(#filter4380)" opacity=".3" transform="matrix(.5 0 0 .5 -16.666462 -20.825235)"/>
  <path d="m77.145138 13.174765c-36.098811 0-39.983003 3.690158-39.806081 39.689842v74.310153 74.31016c-.176922 35.99969 3.70727 39.68984 39.806081 39.68984h100.387322c36.09881 0 39.80608-3.68973 39.80608-39.68984v-74.31016-74.310153c0-36.000113-3.70727-39.689842-39.80608-39.689842z" opacity=".1"/>
  <path d="m176.40652 15.174765c35.29673 0 39.09461 3.625418 38.92162 38.99353v73.006465 73.00647c.17299 35.36812-3.62489 38.99353-38.92162 38.99353h-98.156762c-35.296716 0-38.921616-3.625-38.921616-38.99353v-73.00647-73.006465c0-35.368533 3.6249-38.99353 38.921616-38.99353z" fill="url(#linearGradient4226)"/>
  <path d="m215.32768 187.18062-51.99414 51.99414h13.07227c35.29673 0 39.09486-3.62602 38.92187-38.99414z" fill="#fff"/>
  <path d="m78.255418 15.174765c-35.296728 0-39.09487 3.626029-38.92188 38.994141v2c-.17299-35.368112 3.625152-38.994141 38.92188-38.994141h98.156242c35.29673 0 38.92188 3.625608 38.92188 38.994141v-2c0-35.368533-3.62515-38.994141-38.92188-38.994141z" fill="#fff" opacity=".3"/>
  <path d="m78.260818 239.17476c-35.296731 0-39.094875-3.62603-38.921885-38.99414v-2c-.17299 35.36811 3.625154 38.99414 38.921885 38.99414h98.156242c35.29673 0 38.92188-3.62561 38.92188-38.99414v2c0 35.36853-3.62515 38.99414-38.92188 38.99414z" opacity=".2"/>
  <path d="m127.33353 15.174765v223.999995h49.07228c35.29673 0 39.09486-3.62602 38.92187-38.99414v-73.00586-73.005854c.17299-35.368112-3.62514-38.994141-38.92187-38.994141z" fill="#fff" opacity=".2"/>
  <path d="m39.327679 127.17476v73.00586c0 35.36853 3.625159 38.99414 38.921879 38.99414h98.156252c35.29673 0 39.09486-3.62602 38.92187-38.99414v-73.00586z" fill="#fff" opacity=".2"/>
  <g fill="#e3dfd5" fill-opacity=".996078">
    <path d="m63.333538 51.248994v4h128.000002v-4z"/>
    <path d="m63.333538 67.248995v4h128.000002v-4z"/>
    <path d="m63.333538 83.174775v3.99999h128.000002v-3.99999z"/>
    <path d="m63.333538 99.174764v3.999996h128.000002v-3.999996z"/>
    <path d="m63.333538 115.17476v4l128.000002.0742v-4z"/>
    <path d="m63.333538 131.17476v4h128.000002v-4z"/>
    <path d="m63.333538 147.17476v4h128.000002v-4z"/>
    <path d="m63.333538 163.17476v4l128.000002.0742v-4z"/>
    <path d="m63.333538 179.17476v4h128.000002v-4z"/>
    <path d="m63.333538 195.17476v4h128.000002v-4z"/>
  </g>
  <path d="m119.2084 54.174775c-35.298037 0-63.999992 28.70196-63.999992 63.999985 0 35.29804 28.701955 64 63.999992 64 15.45233 0 29.63936-5.50209 40.70899-14.64844l6.89063 6.89063-1.41406 1.41406 31.49999 31.5 11.31445-11.3125-31.49999-31.5-1.41406 1.41406-6.88086-6.88086c9.23157-11.09442 14.79492-25.34465 14.79492-40.87695 0-35.298025-28.70196-63.999985-64.00001-63.999985zm0 8.136719c30.90125 0 55.86524 24.962031 55.86524 55.863266 0 30.90124-24.96399 55.86523-55.86524 55.86523-30.901237 0-55.865222-24.96399-55.865222-55.86523 0-30.901235 24.963985-55.863266 55.865222-55.863266z" filter="url(#filter1060)" opacity=".1"/>
  <g enable-background="new" transform="translate(-26.666302 -24.825228)">
    <g enable-background="new" fill="none" transform="matrix(-1 0 0 1 319.8747 .00031)">
      <path d="m116.15722 195.99999 12.00001-12" stroke="#888" stroke-width="11.999999"/>
      <path d="m88.657217 223.49999 31.500013-31.5" stroke="#3b3b3b" stroke-width="15.999999"/>
    </g>
    <circle cx="147.875" cy="140" fill="#fff" fill-opacity=".542923" r="59.932" stroke="#666" stroke-width="8.135592"/>
  </g>
</svg>

<?xml version="1.0" encoding="UTF-8" standalone="no"?>
<svg
   xmlns:dc="http://purl.org/dc/elements/1.1/"
   xmlns:cc="http://creativecommons.org/ns#"
   xmlns:rdf="http://www.w3.org/1999/02/22-rdf-syntax-ns#"
   xmlns:svg="http://www.w3.org/2000/svg"
   xmlns="http://www.w3.org/2000/svg"
   xmlns:xlink="http://www.w3.org/1999/xlink"
   xmlns:sodipodi="http://sodipodi.sourceforge.net/DTD/sodipodi-0.dtd"
   xmlns:inkscape="http://www.inkscape.org/namespaces/inkscape"
   style="enable-background:new"
   width="256"
   height="256"
   version="1.0"
   viewBox="0 0 256 256"
   id="svg138"
   sodipodi:docname="document-print-preview.svg"
   inkscape:version="0.92.3 (2405546, 2018-03-11)">
  <metadata
     id="metadata142">
    <rdf:RDF>
      <cc:Work
         rdf:about="">
        <dc:format>image/svg+xml</dc:format>
        <dc:type
           rdf:resource="http://purl.org/dc/dcmitype/StillImage" />
        <dc:title>
  Adwaita Icon Template
 </dc:title>
      </cc:Work>
    </rdf:RDF>
  </metadata>
  <sodipodi:namedview
     pagecolor="#ffffff"
     bordercolor="#666666"
     borderopacity="1"
     objecttolerance="10"
     gridtolerance="10"
     guidetolerance="10"
     inkscape:pageopacity="0"
     inkscape:pageshadow="2"
     inkscape:window-width="640"
     inkscape:window-height="480"
     id="namedview140"
     showgrid="false"
     inkscape:zoom="0.921875"
     inkscape:cx="128"
     inkscape:cy="128"
     inkscape:window-x="0"
     inkscape:window-y="34"
     inkscape:window-maximized="0"
     inkscape:current-layer="svg138" />
  <title
     id="title4162">
  Adwaita Icon Template
 </title>
  <defs
     id="defs34">
    <linearGradient
       id="linearGradient1574"
       x1="344"
       x2="340"
       y1="76"
       y2="72"
       gradientTransform="matrix(0.25,0,0,0.25,180,83)"
       gradientUnits="userSpaceOnUse"
       xlink:href="#linearGradient1351-3" />
    <linearGradient
       id="linearGradient1351-3">
      <stop
         id="stop1347"
         offset="0"
         style="stop-color:#d5d3cf" />
      <stop
         id="stop1349-6"
         offset="1"
         style="stop-color:#ffffff" />
    </linearGradient>
    <clipPath
       id="clipPath1609"
       clipPathUnits="userSpaceOnUse">
      <path
         style="fill:#e74747"
         d="m 252,116 28,-28 v -8 h -36 v 36 z"
         id="path7" />
    </clipPath>
    <linearGradient
       id="linearGradient1572"
       x1="256"
       x2="256"
       y1="268"
       y2="-180"
       gradientUnits="userSpaceOnUse"
       xlink:href="#linearGradient1187" />
    <linearGradient
       id="linearGradient1187">
      <stop
         id="stop1183"
         offset="0"
         style="stop-color:#eeeeec" />
      <stop
         id="stop1185"
         offset="1"
         style="stop-color:#ffffff" />
    </linearGradient>
    <linearGradient
       id="linearGradient979"
       x1="261.503"
       x2="261.23"
       y1="105.838"
       y2="105.559"
       gradientUnits="userSpaceOnUse"
       xlink:href="#linearGradient1351-3" />
    <clipPath
       id="clipPath1609-7-3"
       clipPathUnits="userSpaceOnUse">
      <path
         style="fill:#e74747"
         d="m 252,116 28,-28 v -8 h -36 v 36 z"
         id="path15" />
    </clipPath>
    <linearGradient
       id="linearGradient917"
       x1="103.436"
       x2="102.252"
       y1="264.437"
       y2="263.286"
       gradientUnits="userSpaceOnUse"
       xlink:href="#linearGradient1351-3" />
    <filter
       style="color-interpolation-filters:sRGB"
       id="filter1060"
       width="1.048"
       height="1.048"
       x="-.02"
       y="-.02">
      <feGaussianBlur
         id="feGaussianBlur1062"
         stdDeviation="1.531" />
    </filter>
    <linearGradient
       id="linearGradient4226"
       x1="494.345"
       x2="4.414"
       y1="386.295"
       y2="169.657"
       gradientTransform="matrix(0,-0.453125,-0.45311204,0,253.29054,239.17476)"
       gradientUnits="userSpaceOnUse"
       xlink:href="#linearGradient4245" />
    <linearGradient
       id="linearGradient4245">
      <stop
         id="stop4241"
         offset="0"
         style="stop-color:#e8e8e8" />
      <stop
         id="stop4243"
         offset="1"
         style="stop-color:#f5f5f5" />
    </linearGradient>
    <linearGradient
       id="linearGradient4358"
       x1="88"
       x2="488"
       y1="88"
       y2="488"
       gradientUnits="userSpaceOnUse"
       xlink:href="#linearGradient4360" />
    <linearGradient
       id="linearGradient4360">
      <stop
         id="stop4362"
         offset="0"
         style="stop-color:#000000;stop-opacity:0.58823532" />
      <stop
         style="stop-color:#000000;stop-opacity:0"
         id="stop4364"
         offset=".88" />
      <stop
         id="stop4366"
         offset="1"
         style="stop-color:#000000" />
    </linearGradient>
    <filter
       style="color-interpolation-filters:sRGB"
       id="filter4380"
       width="1.106"
       height="1.088"
       x="-.05"
       y="-.04">
      <feGaussianBlur
         id="feGaussianBlur4382"
         stdDeviation="8.48" />
    </filter>
    <filter
       style="color-interpolation-filters:sRGB"
       id="filter4346"
       width="1.026"
       height="1.022"
       x="-.01"
       y="-.01">
      <feGaussianBlur
         id="feGaussianBlur4348"
         stdDeviation="2.12" />
    </filter>
  </defs>
  <path
     style="opacity:0.1;filter:url(#filter4346)"
     d="M 189.84323,74 C 119.24979,74 111.65402,81.250835 112,151.98706 V 298 444.01294 C 111.65402,514.74917 119.24979,522 189.84323,522 H 386.15677 C 456.75021,522 462.16345,514.72616 464,444.01294 V 298 151.98706 C 464,81.249993 456.75021,74 386.15677,74 Z"
     transform="matrix(0.5,0,0,0.5,-16.666462,-20.825235)"
     id="path36" />
  <path
     d="M 189.84323,74 C 119.24979,74 111.65402,81.250835 112,151.98706 V 298 444.01294 C 111.65402,514.74917 119.24979,522 189.84323,522 H 386.15677 C 456.75021,522 464,514.75001 464,444.01294 V 298 151.98706 C 464,81.249993 456.75021,74 386.15677,74 Z"
     transform="matrix(0.5,0,0,0.5,-16.666462,-20.825235)"
     style="opacity:0.3;fill:url(#linearGradient4358);filter:url(#filter4380)"
     id="path38" />
  <path
     style="opacity:0.1"
     d="m 77.145138,13.174765 c -36.098811,0 -39.983003,3.690158 -39.806081,39.689842 v 74.310153 74.31016 c -0.176922,35.99969 3.70727,39.68984 39.806081,39.68984 H 177.53246 c 36.09881,0 39.80608,-3.68973 39.80608,-39.68984 V 127.17476 52.864607 c 0,-36.000113 -3.70727,-39.689842 -39.80608,-39.689842 z"
     id="path40" />
  <path
     style="fill:url(#linearGradient4226)"
     d="m 176.40652,15.174765 c 35.29673,0 39.09461,3.625418 38.92162,38.99353 v 73.006465 73.00647 c 0.17299,35.36812 -3.62489,38.99353 -38.92162,38.99353 H 78.249758 c -35.296716,0 -38.921616,-3.625 -38.921616,-38.99353 V 127.17476 54.168295 c 0,-35.368533 3.6249,-38.99353 38.921616,-38.99353 z"
     id="path42" />
  <path
     style="fill:#ffffff"
     d="m 215.32768,187.18062 -51.99414,51.99414 h 13.07227 c 35.29673,0 39.09486,-3.62602 38.92187,-38.99414 z"
     id="path44" />
  <path
     style="opacity:0.3;fill:#ffffff"
     d="m 78.255418,15.174765 c -35.296728,0 -39.09487,3.626029 -38.92188,38.994141 v 2 C 39.160548,20.800794 42.95869,17.174765 78.255418,17.174765 h 98.156242 c 35.29673,0 38.92188,3.625608 38.92188,38.994141 v -2 c 0,-35.368533 -3.62515,-38.994141 -38.92188,-38.994141 z"
     id="path46" />
  <path
     style="opacity:0.2"
     d="m 78.260818,239.17476 c -35.296731,0 -39.094875,-3.62603 -38.921885,-38.99414 v -2 c -0.17299,35.36811 3.625154,38.99414 38.921885,38.99414 h 98.156242 c 35.29673,0 38.92188,-3.62561 38.92188,-38.99414 v 2 c 0,35.36853 -3.62515,38.99414 -38.92188,38.99414 z"
     id="path48" />
  <path
     style="opacity:0.2;fill:#ffffff"
     d="M 127.33353,15.174765 V 239.17476 h 49.07228 c 35.29673,0 39.09486,-3.62602 38.92187,-38.99414 V 127.17476 54.168906 c 0.17299,-35.368112 -3.62514,-38.994141 -38.92187,-38.994141 z"
     id="path50" />
  <path
     style="opacity:0.2;fill:#ffffff"
     d="m 39.327679,127.17476 v 73.00586 c 0,35.36853 3.625159,38.99414 38.921879,38.99414 h 98.156252 c 35.29673,0 39.09486,-3.62602 38.92187,-38.99414 v -73.00586 z"
     id="path52" />
  <path
     style="fill:#e3dfd5;fill-opacity:0.99607843"
     d="m 63.333538,51.248994 v 4 H 191.33354 v -4 z"
     id="path106" />
  <path
     style="fill:#e3dfd5;fill-opacity:0.99607843"
     d="m 63.333538,67.248995 v 4 H 191.33354 v -4 z"
     id="path108" />
  <path
     style="fill:#e3dfd5;fill-opacity:0.99607843"
     d="m 63.333538,83.174775 v 3.99999 H 191.33354 v -3.99999 z"
     id="path110" />
  <path
     style="fill:#e3dfd5;fill-opacity:0.99607843"
     d="m 63.333538,99.174764 v 3.999996 H 191.33354 v -3.999996 z"
     id="path112" />
  <path
     style="fill:#e3dfd5;fill-opacity:0.99607843"
     d="m 63.333538,115.17476 v 4 l 128.000002,0.0742 v -4 z"
     id="path114" />
  <path
     style="fill:#e3dfd5;fill-opacity:0.99607843"
     d="m 63.333538,131.17476 v 4 H 191.33354 v -4 z"
     id="path116" />
  <path
     style="fill:#e3dfd5;fill-opacity:0.99607843"
     d="m 63.333538,147.17476 v 4 H 191.33354 v -4 z"
     id="path118" />
  <path
     style="fill:#e3dfd5;fill-opacity:0.99607843"
     d="m 63.333538,163.17476 v 4 l 128.000002,0.0742 v -4 z"
     id="path120" />
  <path
     style="fill:#e3dfd5;fill-opacity:0.99607843"
     d="m 63.333538,179.17476 v 4 H 191.33354 v -4 z"
     id="path122" />
  <path
     style="fill:#e3dfd5;fill-opacity:0.99607843"
     d="m 63.333538,195.17476 v 4 H 191.33354 v -4 z"
     id="path124" />
  <path
     style="opacity:0.1;filter:url(#filter1060)"
     d="m 119.2084,54.174775 c -35.298037,0 -63.999992,28.70196 -63.999992,63.999985 0,35.29804 28.701955,64 63.999992,64 15.45233,0 29.63936,-5.50209 40.70899,-14.64844 l 6.89063,6.89063 -1.41406,1.41406 31.49999,31.5 11.31445,-11.3125 -31.49999,-31.5 -1.41406,1.41406 -6.88086,-6.88086 c 9.23157,-11.09442 14.79492,-25.34465 14.79492,-40.87695 0,-35.298025 -28.70196,-63.999985 -64.00001,-63.999985 z m 0,8.136719 c 30.90125,0 55.86524,24.962031 55.86524,55.863266 0,30.90124 -24.96399,55.86523 -55.86524,55.86523 -30.901237,0 -55.865222,-24.96399 -55.865222,-55.86523 0,-30.901235 24.963985,-55.863266 55.865222,-55.863266 z"
     id="path126" />
  <g
     style="enable-background:new"
     transform="translate(-26.666302,-24.825228)"
     id="g136">
    <g
       transform="matrix(-1,0,0,1,319.8747,3.1e-4)"
       style="enable-background:new"
       id="g132">
      <path
         d="m 116.15722,195.99999 12.00001,-12"
         style="fill:none;stroke:#888888;stroke-width:11.99999905"
         id="path128" />
      <path
         style="fill:none;stroke:#3b3b3b;stroke-width:15.99999905"
         d="m 88.657217,223.49999 31.500013,-31.5"
         id="path130" />
    </g>
    <circle
       cx="147.875"
       cy="140"
       r="59.932"
       style="fill:#ffffff;fill-opacity:0.54292345;stroke:#666666;stroke-width:8.13559246"
       id="circle134" />
  </g>
</svg>
